!!!!SEGMENT: pl-wtm--r-2309--004_troschel-wilhelm--msza-benedictus.krn
!!!cenid: 18xx:2271
!!!COM: Troschel, Wilhelm
!!!COM-rismid: pe30024099
!!!CDT: 1823/08/23-1887/03/02
!!!CNT: Polish
!!!OPR: Msza
!!!OTL: Benedictus
!!!OMV: 004
!!!PDT: 1853
!!!AGN: Sacred; Mass
!!!SMS-siglum: PL-Wtm
!!!SMS-shelfmark: R 2309
!!!SMS-shelfwork: 001-004 M
!!!SMS-variant:
!!!SMS-altvar:
!!!NIFC-rismid: 1001114147
!!!URL-scan: http://repozytorium.nifc.pl/skany/pl-wtm-nut--r2309
!!!ONB-nifc: UWAGA: części Mszy: 1. Kyrie, 2. Gloria, 3. Credo, 4. Benedictus, 5. Agnus Dei
!!!OMD: Andante
!!!AIN: 2 empty
!!!key:
**kern	**kern	**dynam	**kern	**text	**text
*part2	*part2	*part2	*part1	*part1	*part1
*staff3	*staff2	*	*staff1	*staff1	*staff1
*Iempty	*Iforte	*	*Iempty	*	*
*"[fp.]	*I"[fp.]	*	*I"Basſ lub Alt	*	*
*clefF4	*clefG2	*	*clefF4	*	*
*k[b-e-a-d-]	*k[b-e-a-d-]	*	*k[b-e-a-d-]	*	*
*A-:	*A-:	*	*A-:	*	*
*M4/4	*M4/4	*	*M4/4	*	*
*met(c)	*met(c)	*	*met(c)	*	*
!!LO:TX:t=P:problem:all\left or right:global
=1	=1	=1	=1	=1	=1
2AA-/	1r	.	1r	.	.
4C\	.	.	.	.	.
4D-\	.	.	.	.	.
=2	=2	=2	=2	=2	=2
*2\right	*	*	*	*	*
2E-\	1r	.	1r	.	.
4F\	.	.	.	.	.
4G\	.	.	.	.	.
=3	=3	=3	=3	=3	=3
*^	*	*	*	*	*
2A-/	[1AA-	2A-/ 2c	.	1r	.	.
4G/	.	4B-/ 4d-	.	.	.	.
4G-X/	.	4c/ 4e-	.	.	.	.
=4	=4	=4	=4	=4	=4	=4
*	*	*^	*	*	*	*
*	*	*	*2\right	*	*	*	*
2F/	1AA-]	2f/	2.d-\	.	1r	.	.
4F-X/	.	4g/	.	.	.	.	.
4E-/	.	4a-/	4c\	.	.	.	.
=5	=5	=5	=5	=5	=5	=5	=5
1E-	2GG\	4b-/	2d-\	.	1r	.	.
.	.	4e-/	.	.	.	.	.
.	2AA-\	4cc/	2c\	.	.	.	.
.	.	8b-/L	.	.	.	.	.
.	.	8a-/J	.	.	.	.	.
=6	=6	=6	=6	=6	=6	=6	=6
2En/	2C\	4g/	2B-\	.	1r	.	.
.	.	4c/	.	.	.	.	.
4F/	2FF\	4a-/	4A-\	.	.	.	.
8G/L	.	8g/L	8B-\L	.	.	.	.
8A-/J	.	8f/J	8c\J	.	.	.	.
=7	=7	=7	=7	=7	=7	=7	=7
4G/	1GG	4e-/	2.c\	.	1r	.	.
4E-/	.	4g/	.	.	.	.	.
2F/	.	4a-/	.	.	.	.	.
.	.	4g/	4Bn\	.	.	.	.
!!LO:LB:g=original
=8	=8	=8	=8	=8	=8	=8	=8
4E-/	2C\	4c/	2c\	.	1r	.	.
4G/	.	4e-/	.	.	.	.	.
2G/	2EE-\	4f/	2d-\	.	.	.	.
.	.	4e-/	.	.	.	.	.
*	*	*v	*v	*	*	*	*
=9	=9	=9	=9	=9	=9	=9
!	!	!	!	!LO:TX:a:t=Basſ\n lub\n Alt	!	!
1A-	2AA-\	2c/ 2e-	.	4.E-\	Be-	.
.	.	.	.	8E-\	-ne-	.
.	2D-\	2d-/ 2f	.	4F\	-dic-	.
.	.	.	.	4F\	-tus	.
=10	=10	=10	=10	=10	=10	=10
*	*	*^	*	*	*	*
*	*	*	*	*	*2\right	*	*
1E-	2BB-\	2d-/ 2g	2ryy	.	2G\	qui	.
.	2AA-\	2a-/	2c\	.	4A-\	ve-	.
.	.	.	.	.	4E-\	-nit	.
*	*	*v	*v	*	*	*	*
=11	=11	=11	=11	=11	=11	=11
2.E-/	2GG\	2d-/ 2b-	.	2B-\	in	.
.	4AA-\	4c/ 4a-	.	4c\	no-	.
8EEn/L 8En	4ryy	8B-/L 8d- 8g	.	8B-\	-mi-	.
8FF/J 8F	.	8A-/J 8c 8f	.	8A-\	-ne	.
=12	=12	=12	=12	=12	=12	=12
*	*	*^	*	*	*	*
2GG\	2.ryy	2G/ 2c 2e-	2ryy	.	2G\	Do-	.
4FF/	.	2dn/	4A-\ 4c	.	(>4A-\	-mi-	.
8G/L	4GG\	.	4Bn/	.	4G\)	.	.
8F/J	.	.	.	.	.	.	.
=13	=13	=13	=13	=13	=13	=13	=13
4E-/	2C\	4c/	2c\	.	2C/	-ni	.
4G/	.	4e-/	.	.	.	.	.
2G/	4BB-\	4f/	2d-\	.	2r	.	.
.	4E-\	4e-/	.	.	.	.	.
*	*	*v	*v	*	*	*	*
!!LO:LB:g=original
=14	=14	=14	=14	=14	=14	=14
1A-	2AA-\	2c/ 2e-	.	4.E-\	Be-	.
.	.	.	.	8E-\	-ne-	.
.	2D-\	2d-/ 2f	.	4F\	-dic-	.
.	.	.	.	4F\	-tus	.
=15	=15	=15	=15	=15	=15	=15
*	*	*^	*	*	*	*
2B-/	2En\	2d-/ 2g	2ryy	.	2G\	qui	.
2A-/	2F\	2a-/	2c\	.	4A-\	ve-	.
.	.	.	.	.	4A-\	-nit	.
=16	=16	=16	=16	=16	=16	=16	=16
!	!	!	!	!	!	!	!
2A-/	4G-X\	2a-/	4c\	.	4.A-\	be-	.
.	8F\L	.	8d-\L	.	.	.	.
.	8E-\J	.	8c\J 8g-X	.	8A-\	-ne-	.
2A-/	2D-\	4d-/ 4f 4a-	2ryy	.	4d-\	-dic-	.
.	.	4d-/ 4f	.	.	4F\	-tus	.
=17	=17	=17	=17	=17	=17	=17	=17
!LO:N:n=2:vis=1	!	!	!	!	!	!	!
2A-/	2E-\	1e-	2c\	.	2E-\	qui	.
!LO:N:n=2:vis=1	!	!	!	!	!	!	!
2G/	2EE-\	.	2d-\	.	4BB-/	ve-	.
.	.	.	.	.	8F\L	.	.
.	.	.	.	.	8E-\J	.	.
=18	=18	=18	=18	=18	=18	=18	=18
2.E-/	2.AA-\	2A-/ 2c 2e-	2ryy	.	2AA-/	-nit	.
.	.	2c/	4A-</	.	2r	.	.
4GGn\ 4En	4ryy	.	4B-</	.	.	.	.
=19	=19	=19	=19	=19	=19	=19	=19
1F	2FF\	2A-/ 2c	2ryy	.	2C/	in	.
.	2AA-\	2f/	2c\	.	4C/	no-	.
.	.	.	.	.	8C/	-mi-	.
.	.	.	.	.	8C/	-ne	.
=20	=20	=20	=20	=20	=20	=20	=20
1G	4.GG\	4.f/	1B-	.	4.D-\	Do-	.
.	8C\	8en/	.	.	8C/	-mi-	.
.	2C\	2e/	.	.	2C/	-ni	.
!!LO:PB:g=original
=21	=21	=21	=21	=21	=21	=21	=21
1F	2FF\	2A-/ 2a-	2ryy	.	2A-\	in	.
.	2AA-\	4a-/	2c\	.	4A-\	no-	.
.	.	8g/L	.	.	8G\	-mi-	.
.	.	8f/J	.	.	8F\	-ne	.
=22	=22	=22	=22	=22	=22	=22	=22
4.D-/	1GG	4.f/	1B-	.	4.F\	Do-	.
8C/	.	8en/	.	.	8En\	-mi-	.
2C/	.	2e/	.	.	2E\	-ni	.
=23	=23	=23	=23	=23	=23	=23	=23
1C	2FF\	2f/	1A-	.	4.c\	Be-	.
!	!	!	!	!	!	!	!
.	.	.	.	.	8c\	-ne-	.
.	4EE-\	2g-X/	.	.	4c\	-dic-	.
.	4AA-\	.	.	.	8c\	-tus	.
.	.	.	.	.	8c\	qui	.
=24	=24	=24	=24	=24	=24	=24	=24
!	!	!	!	!LO:DY:rj	!	!	!
2D-/	2DD-\	1f	2A-\	f	2d-\	ve-	.
2F/	2D-\	.	4B-\	.	4d-\	-nit	.
.	.	.	4Bn\	.	4d-\	in	.
=25	=25	=25	=25	=25	=25	=25	=25
4F/	2C\	4a-/	2c\	.	4c\	no-	.
8G/L	.	8g/L	.	.	8B-\	-mi-	.
8A-/J	.	8f/J	.	.	8A-\	-ne	.
2G/	4BB-\	4d-/ 4f	4ryy	.	4G\	do-	.
.	.	.	.	.	8qB-/	.	.
.	4C\	4en/	8c\L	.	8A-\L	-mi-	.
.	.	.	8B-\J	.	8G\J	.	.
=26	=26	=26	=26	=26	=26	=26	=26
4FF\ 4F	2ryy	(>2f/	4A-\	.	2F\	-ni	.
!LO:TX:b:t=rall&colon;	!	!	!	!	!	!	!
4F\ 4A-	.	.	4c\	.	.	.	.
2B-/	4F-X\	4g-X/	2d-\	.	2r	.	.
.	4E-\	8gn/L	.	.	.	.	.
.	.	8e-/J)	.	.	.	.	.
!!LO:LB:g=original
=27	=27	=27	=27	=27	=27	=27	=27
1A-	2AA-\	2c/ 2e-	2ryy	.	4.E-\	Be-	.
.	.	.	.	.	8E-\	-ne-	.
.	2D-\	2f/	2d-\	.	4F\	-dic-	.
.	.	.	.	.	4F\	-tus	.
*	*	*v	*v	*	*	*	*
=28	=28	=28	=28	=28	=28	=28
1E-	2BB-\	2d-/ 2g	.	2G\	qui	.
.	2AA-\	2c/ 2a-	.	4A-\	ve-	.
.	.	.	.	4E-\	-nit	.
=29	=29	=29	=29	=29	=29	=29
!	!	!	!	!LO:TX:t=P:problem=korekta tekstu	!	!
2.E-/	2GG\	2d-/ 2b-	.	2B-\	in	[[be-
.	4AA-\	4c/ 4a-	.	4c\	no-	-ne-
8EEn/L 8En	4ryy	8B-/L 8d- 8g	.	8B-\	-mi-	-dic-
8FF/J 8F	.	8A-/J 8c 8f	.	8A-\	-ne	-tus
*v	*v	*	*	*	*	*
=30	=30	=30	=30	=30	=30
*	*^	*	*	*	*
2GG/	2G/ 2c 2e-	2ryy	.	2G\	Do-	qui
4FF\	2dn/	4A-\ 4c	.	4A-\	-mi-	ve-]]
4GG\	.	8G\L 8Bn	.	4G\	.	.
.	.	8F<\J	.	.	.	.
=31	=31	=31	=31	=31	=31	=31
*^	*	*	*	*	*	*
4E-/	2C\	4c/	4c\	.	2C/	-ni	.
4G/	.	4e-/	4c\	.	.	.	.
2G/	4BB-\	4f/	2d-\	.	2r	.	.
.	4E-\	4e-/	.	.	.	.	.
*	*	*v	*v	*	*	*	*
=32	=32	=32	=32	=32	=32	=32
!	!	!	!	!LO:N:vis=8.	!	!
1A-	2AA-\	2c/ 2e-	.	4.E-\	Be-	.
.	.	.	.	8E-\	-ne-	.
.	2D-\	2d-/ 2f	.	4F\	-dic-	.
.	.	.	.	4F\	-tus	.
=33	=33	=33	=33	=33	=33	=33
2B-/	2En\	2d-/ 2g	.	2G\	qui	.
2A-/	2F\	2c/ 2a-	.	4A-\	ve-	.
.	.	.	.	4A-\	-nit	.
=34	=34	=34	=34	=34	=34	=34
*	*	*^	*	*	*	*
!	!	!	!	!	!	!	!
2A-/	4G-X\	2a-/	4c\	.	4.A-\	be-	.
.	8F\L	.	8d-\L	.	.	.	.
.	8E-\J	.	8c\J 8g-X	.	8A-\	-ne-	.
2A-/	2D-\	4d-/ 4f 4a-	2ryy	.	4d-\	-dic-	.
.	.	4d-/ 4f	.	.	4F\	-tus	.
*v	*v	*	*	*	*	*	*
*	*v	*v	*	*	*	*
!!LO:LB:g=original
=35	=35	=35	=35	=35	=35
2E-\ 2A-	2c/ 2e-	.	2E-\	qui	.
2EE-\ 2E-	2Gn/ 2d- 2e-	.	4BB-/	ve-	.
.	.	.	8F\L	.	.
.	.	.	8E-\J	.	.
=36	=36	=36	=36	=36	=36
*^	*	*	*	*	*
1E-	2AA-\	1A- 1c 1e-	.	2AA-/	-nit	.
.	4C\	.	.	2r	.	.
.	4AA-\	.	.	.	.	.
=37	=37	=37	=37	=37	=37	=37
*	*	*^	*	*	*	*
!	!	!	!	!	!LO:TX:b:t=dolce	!	!
1E-	2GGn\	1e-	2.B-\	.	(2B-\	in	.
.	2GG-X\	.	.	.	4E-\	no-	.
.	.	.	8An\L	.	8c\	-mi-	.
.	.	.	8B-\J	.	8B-\)	-ne	.
=38	=38	=38	=38	=38	=38	=38	=38
*	*	*	*^	*	*	*	*
1F	1FF	4.g-X/	1e-	4.B-\	.	4.B-\	Do-	.
.	.	8f/	.	8An\	.	8An\	-mi-	.
.	.	2e-/ 2f	.	2A\	.	2A\	-ni	.
*	*	*	*v	*v	*	*	*	*
=39	=39	=39	=39	=39	=39	=39	=39
1F	2AAn\	1f	2.c\	.	2c\	in	.
.	2AA-X\	.	.	.	4F\	no-	.
.	.	.	8Bn\L	.	8dn\	-mi-	.
.	.	.	8c\J	.	8c\	-ne	.
=40	=40	=40	=40	=40	=40	=40	=40
*	*	*	*^	*	*	*	*
!	!	!	!LO:SIC:v:s=2dn/	!	!	!	!	!
1G	2GG\	4.a-/	2d-/	4.c\	.	4.c\	Do-	.
.	.	8g/	.	8Bn\	.	8Bn\	-mi-	.
!	!	!LO:SIC:v:n=2:s=2dn/	!	!	!	!	!	!
.	2G\	2d-/ 2g	2ryy	2B\	.	2B\	-ni	.
*v	*v	*	*	*	*	*	*	*
*	*	*v	*v	*	*	*	*
=41	=41	=41	=41	=41	=41	=41
!	!	!	!	!	!	!
4F\	4dn/ 4a-	4B-\	.	4.B-X\	Be-	.
4En\	4d-X/ 4g	4B-\	.	.	.	.
.	.	.	.	8B-\	-ne-	.
4F\	4dn/ 4a-	4B-\	.	4B-\	-dic-	.
4A-\	4B-/ 4d 4f	4ryy	.	8B-\	-tus	.
.	.	.	.	8B-\	qui	.
!!LO:PB:g=original
=42	=42	=42	=42	=42	=42	=42
*^	*	*	*	*	*	*
4G\	2ryy	4B-/ 4e-	4ryy	.	4c\	ve-	.
4E-\	.	4d-X/ 4g	4B-\	.	8B-\	-nit	.
.	.	.	.	.	8B-\	in	.
4En/	2AA-\	4d-/ 4b-	4ryy	.	4B-\	no-	.
8F/L	.	8a-/L	4c\	.	8A-\	-mi-	.
8G/J	.	8g/J	.	.	8G\	-ne	.
=43	=43	=43	=43	=43	=43	=43	=43
1A-	2AA-\	1f	2c\	.	4F\	do-	.
.	.	.	.	.	8G\L	.	.
.	.	.	.	.	8A-\J	.	.
.	2BB-\	.	2dn\	.	4.c\	-mi-	.
.	.	.	.	.	8B-\	.	.
=44	=44	=44	=44	=44	=44	=44	=44
2G/	1E-	1e-	2e-\	.	2E-\	-ni	.
4A-/	.	.	4c\	.	2r	.	.
4B-/	.	.	4d-\	.	.	.	.
*	*	*v	*v	*	*	*	*
=45	=45	=45	=45	=45	=45	=45
!	!	!	!LO:DY:rj	!	!	!
1A-	2AA-\	2c/ 2e-	pp	4.E-\	Be-	.
.	.	.	.	8E-\	-ne-	.
.	2D-\	2d-/ 2f-X	.	4F-X\	-dic-	.
.	.	.	.	4F-\	-tus	.
=46	=46	=46	=46	=46	=46	=46
1c-X	2C-X\	2e-/ 2g-X	.	2G-X\	qui	.
.	2F-X\	2f-X/ 2a-	.	4A-\	ve-	.
.	.	.	.	4A-\	-nit	.
=47	=47	=47	=47	=47	=47	=47
*	*	*^	*	*	*	*
2A-/	1F-X	2cc-X/	1dn	.	(>2c-X\	Be-	.
4B-/	.	4b-/	.	.	4B-\)	.	.
4c-X/	.	4a-/	.	.	4A-\	-ne	.
!!LO:LB:g=original
=48	=48	=48	=48	=48	=48	=48	=48
2A-/	1E-	2ccn/	2e-\	.	2cn\	di-	.
4cn/	.	2a-/	4e-\	.	4A-\	-tus	.
4c-X/	.	.	4dn\	.	4F\	qui	.
=49	=49	=49	=49	=49	=49	=49	=49
1B-	1E-	2a-/	1d-X	.	2F\	ve-	.
.	.	2g/	.	.	2E-\	.	.
=50	=50	=50	=50	=50	=50	=50	=50
1A-	2AA-\	[>1a-	1c	.	2AA-/	-nit	.
.	4AA-\	.	.	.	2r	.	.
.	4AA-\	.	.	.	.	.	.
=51	=51	=51	=51	=51	=51	=51	=51
!	!	!	!	!LO:DY:rj	!	!	!
2G-X/	[<1AA-	1a-_>	2e-\	f	4.A-\	Be-	.
.	.	.	.	.	8A-\	-ne-	.
2F/	.	.	2dn\	.	4A-\	-dic-	.
.	.	.	.	.	4AA-/	-tus	.
=52	=52	=52	=52	=52	=52	=52	=52
!LO:TX:b:t=P:problem=ligatura bez nuty	!	!	!	!	!	!	!
2F-X/	1AA-]	1a-_>	2d-X\	.	2A-\	qui	.
2E-/	.	.	2c\	.	4A-\	ve-	.
.	.	.	.	.	4AA-/	-nit	.
*v	*v	*	*	*	*	*	*
*	*v	*v	*	*	*	*
=53	=53	=53	=53	=53	=53
!	!	!LO:DY:rj	!	!	!
2F-X\	2c-X/ 2f-X 2a-]	p	2F-X\	in	.
2BB--/	2d-/ 2f- 2b--	.	4F-\	no-	.
.	.	.	8F-\	-mi-	.
.	.	.	8F-\	-ne	.
=54	=54	=54	=54	=54	=54
1EE- 1E-	1d- 1e- 1g	.	2.E-\	Do-	.
.	.	.	4E-\	-mi-	.
!!LO:LB:g=original
=55	=55	=55	=55	=55	=55
*M6/8	*M6/8	*	*M6/8	*	*
*^	*^	*	*	*	*
[>4.E-/	4AA-\	[>4.c/ [>4.e- [>4.a-	4.ryy	.	[>4.AA-/	-ni	.
.	8AA-\	.	.	.	.	.	.
4E-/]	4AA-\	4c/] 4e-] 4a-]	4ryy	.	4AA-/]	.	.
*ped	*	*	*	*	*	*	*
!LO:TX:b:t=pedał_____	!	!LO:TX:a:t=Chór	!	!LO:DY:rj	!	!	!
8A-/ 8e-	8AA-\	8cc/	8a-\	p	8r	.	.
=56	=56	=56	=56	=56	=56	=56	=56
4.A-\ 4.f	4.AA-\	4.dd-/	4.a-\	.	2.r	.	.
4A-\ 4e-	4AA-\	4cc/	4a-\	.	.	.	.
8A-\ 8e-	8AA-\	8cc/	8a-\	.	.	.	.
=57	=57	=57	=57	=57	=57	=57	=57
4.A-\ 4.f	4.ryy	4.dd-/	4.a-\	.	2.r	.	.
4e-/	4A-\	4cc/	4a-\	.	.	.	.
8e-/	8A-\	8cc/	8a-\	.	.	.	.
=58	=58	=58	=58	=58	=58	=58	=58
4f/	4A-\	4dd-/	4a-\	.	2.r	.	.
8f/	8A-\	8dd-/	8a-\	.	.	.	.
4d-/	4A-\	4ff/	4a-\	.	.	.	.
8f/	8A-\	8dd-/	8a-\	.	.	.	.
=59	=59	=59	=59	=59	=59	=59	=59
4.e-/	4.A-\	4.cc/	4.a-\	.	2.r	.	.
4e-/	4A-\	4cc/	4a-\	.	.	.	.
8e-/	8A-\	8cc/	8a-\	.	.	.	.
=60	=60	=60	=60	=60	=60	=60	=60
4.e-/	4.d-\	4.b-/	4.g\	.	2.r	.	.
4e-/	4d-\	4b-/	4g\	.	.	.	.
8e-/	8d-\	8b-/	8g\	.	.	.	.
=61	=61	=61	=61	=61	=61	=61	=61
4.e-/	4.c\	4.ee-/	4.a-\	.	2.r	.	.
4.e-/	4.A-\	4.cc/	4.a-\	.	.	.	.
!!LO:PB:g=original
=62	=62	=62	=62	=62	=62	=62	=62
4e-/	4B-\	4b-/	4g\	.	2.ryy	.	.
8e-/	8B-\	8g/	8e-\	.	.	.	.
4.dn/	4.BB-\ 4.B-	8a-/L	8f\	.	.	.	.
.	.	8cc/	4a-\	.	.	.	.
.	.	8b-/J	.	.	.	.	.
=63	=63	=63	=63	=63	=63	=63	=63
[>4.e-/	[>4.E-\	[>4.b-/	[<4.g\	.	2.ryy	.	.
4e-/]	4E-\]	4b-/]	4g\]	.	.	.	.
!	!	!	!	!LO:DY:rj	!	!	!
8e-/	8A-\	8cc/	8a-\	f	.	.	.
=64	=64	=64	=64	=64	=64	=64	=64
4.f/	4.A-\	4.dd-/	4.a-\	.	2.ryy	.	.
4e-/	4A-\	4cc/	4a-\	.	.	.	.
8e-/	8A-\	8cc/	8a-\	.	.	.	.
=65	=65	=65	=65	=65	=65	=65	=65
4.f/	4.A-\	4.dd-/	4.a-\	.	2.ryy	.	.
4e-/	4A-\	4cc/	4a-\	.	.	.	.
8e-/	8A-\	8cc/	8a-\	.	.	.	.
=66	=66	=66	=66	=66	=66	=66	=66
4f/	4A-\	4dd-/	4a-\	.	2.ryy	.	.
8f/	8A-\	8dd-/	8a-\	.	.	.	.
4d-/	4A-\	4ff/	4a-\	.	.	.	.
8f/	8A-\	8dd-/	8a-\	.	.	.	.
=67	=67	=67	=67	=67	=67	=67	=67
4.e-/	4.A-\	4.cc/	4.a-\	.	2.ryy	.	.
4e-/	4A-\	4cc/	4a-\	.	.	.	.
8e-/	8A-\	8cc/	8a-\	.	.	.	.
!!LO:LB:g=original
=68	=68	=68	=68	=68	=68	=68	=68
4.e-/	4.d-\	4.b-/	4.g\	.	2.ryy	.	.
4e-/	4d-\	4b-/	4g\	.	.	.	.
8e-/	8d-\	8b-/	8g\	.	.	.	.
=69	=69	=69	=69	=69	=69	=69	=69
4.c\ 4.e-	4.ryy	4.ee-/	4.a-\	.	2.ryy	.	.
!LO:N:vis=4	!LO:N:vis=4	!	!	!	!	!	!
4.e-/	4.c-X\	4.a-/	4.a-\	.	.	.	.
=70	=70	=70	=70	=70	=70	=70	=70
4B-\ 4f	4ryy	4dd-/	4a-\	.	2.ryy	.	.
8B-\ 8f-X	8ryy	8dd-/	8a-\	.	.	.	.
4e-/	4.E-\	4cc/	4.g\	.	.	.	.
8d-/	.	8b-/	.	.	.	.	.
=71	=71	=71	=71	=71	=71	=71	=71
4.c/	4.A-\	4.a-/	4.a-\	.	2.ryy	.	.
4r	4ryy	4r	4ryy	.	.	.	.
!	!	!	!	!LO:DY:rj	!	!	!
8A-/	8A-\	8a-/	8a-\	ff	.	.	.
=72	=72	=72	=72	=72	=72	=72	=72
4.A-/	4.D-\	4.dd-/	4.f\	.	2.ryy	.	.
4.A-/	4.D-\	4.dd-/	4.f\	.	.	.	.
=73	=73	=73	=73	=73	=73	=73	=73
4A-/	4D-\	4dd-/	4f\	.	2.ryy	.	.
!	!	!LO:N:n=2:vis=4	!	!	!	!	!
8A-/	8D-\	8dd-/	8f\	.	.	.	.
4d-/	4F\	4.dd-/	4a-\	.	.	.	.
8A-/	8D-\	.	8f\	.	.	.	.
=74	=74	=74	=74	=74	=74	=74	=74
!LO:N:vis=1.	!	!	!	!	!	!	!
2.A-/	2.AA-;<\	2.cc;>/	2.e-\	.	2.ryy	.	.
*v	*v	*	*	*	*	*	*
*	*v	*v	*	*	*	*
!!LO:LB:g=original
=75	=75	=75	=75	=75	=75
!	!LO:TX:a:t=Organ	!LO:DY:rj	!	!	!
[<4.A-\	[>4.a-/	ff	2.ryy	.	.
4A-\]	4a-/]	.	.	.	.
8A-\	8a-/	.	.	.	.
=76	=76	=76	=76	=76	=76
8E-\L	8e-/L	.	2.ryy	.	.
8A-\	8a-/	.	.	.	.
8E-\J	8e-/J	.	.	.	.
8C\L	8c/L	.	.	.	.
8E-\	8e-/	.	.	.	.
8C\J	8c/J	.	.	.	.
=77	=77	=77	=77	=77	=77
2.AA-/	2.A-/	.	2.ryy	.	.
=78	=78	=78	=78	=78	=78
*	*^	*	*	*	*
2.AA-\ 2.E- 2.A-	[>4.a-/	2.c\ 2.e-	.	2.ryy	.	.
.	4a-/]	.	.	.	.	.
.	16g/LL	.	.	.	.	.
.	16a-/JJ	.	.	.	.	.
=79	=79	=79	=79	=79	=79	=79
2.E-\ 2.G	[>4.b-/	2.B-\ 2.e-	.	2.ryy	.	.
.	4b-/]	.	.	.	.	.
.	16a-/LL	.	.	.	.	.
.	16b-/JJ	.	.	.	.	.
=80	=80	=80	=80	=80	=80	=80
*^	*	*	*	*	*	*
2.A-/	2.AA-;<\ 2.E-	2.a-;>/ 2.cc	2.c\ 2.e-	.	2.ryy	.	.
*v	*v	*	*	*	*	*	*
*	*v	*v	*	*	*	*
!!LO:PB:g=original
==	==	==	==	==	==
*-	*-	*-	*-	*-	*-
!!!system-decoration: s1{(s2,s3)}
!!!RDF**kern: < = below
!!!RDF**kern: > = above
!!!ENC: Marta Chmielewska
!!!END: 2021-06-09
!!!ENC: Katarzyna Serwa
!!!END: 2021-05-26
